res/icons/bragi-icon_source.svg

<svg style="height: 256px; width: 256px;" xmlns="http://www.w3.org/2000/svg" viewBox="0 0 512 512"><defs><linearGradient id="delapouite-viking-head-gradient-0" x1="0" x2="1" y1="0" y2="1"><stop offset="0%" stop-color="#03d6fc" stop-opacity="1" style="--darkreader-inline-stopcolor: var(--darkreader-background-03d6fc, #02abca);" data-darkreader-inline-stopcolor=""></stop><stop offset="100%" stop-color="#5050f0" stop-opacity="1" style="--darkreader-inline-stopcolor: var(--darkreader-background-5050f0, #0d0d98);" data-darkreader-inline-stopcolor=""></stop></linearGradient><linearGradient id="delapouite-viking-head-gradient-1" x1="0" x2="1" y1="0" y2="1"><stop offset="0%" stop-color="#ffffff" stop-opacity="1" style="--darkreader-inline-stopcolor: var(--darkreader-background-ffffff, #181a1b);" data-darkreader-inline-stopcolor=""></stop><stop offset="100%" stop-color="#cccccc" stop-opacity="1" style="--darkreader-inline-stopcolor: var(--darkreader-background-cccccc, #35393b);" data-darkreader-inline-stopcolor=""></stop></linearGradient></defs><circle cx="256" cy="256" r="256" fill="url(#delapouite-viking-head-gradient-0)"></circle><g class="" style="" transform="translate(-25,-3)"><path d="M221.826 18.962c-19.664 21.772-25.274 46.806-22.947 72.576 3.014 33.377 20.582 67.653 40.846 92.127 4.424 4.514 8.193 5.55 11.937 5.31 3.796-.243 7.888-2.242 11.152-5.568 3.265-3.325 5.503-7.832 5.97-12.129.465-4.297-.458-8.336-4.15-12.53l-.517-.587-.406-.668c-21.633-35.426-49.926-85.506-41.885-138.531zm132.778 1.568c6.142 37.121-4.756 72.244-17.704 102.87 8.674 6.972 17.556 15.36 26.391 24.617 7.675-18.27 13.365-37.7 14.605-56.641 1.657-25.302-3.92-49.463-23.292-70.846zm-60.814 100.4a8.042 8.042 0 0 0-.846.037c-5.5.545-14.101 4.158-23.695 10.592 3.17 5.542 6.37 10.887 9.5 16.02 6.426 7.696 8.854 17.099 7.928 25.642-.956 8.81-5.083 16.749-11.02 22.797-5.936 6.047-13.88 10.347-22.844 10.921-8.964.575-18.634-3.056-26.23-10.939l-.229-.236-.209-.252a215.324 215.324 0 0 1-8.798-11.342c-8.841 12.094-16.95 25.171-23.633 38.486 5.262-.424 9.766-.787 16.596-1.342 22.344-1.815 51.953-4.235 81.502-6.656 48.432-3.968 80.82-6.632 96.662-7.935-10.957-15.193-23.235-30.317-35.579-43.52-12.34-13.198-24.754-24.498-35.595-32.025-10.164-7.057-18.988-10.223-23.51-10.248zm-15.041 26.648c-.2-.24-.393-.484-.602-.72l.924 1.255c-.106-.174-.215-.36-.322-.535zm121.473 76.238c-9.5.782-53.357 4.391-106.94 8.782a130402.1 130402.1 0 0 1-81.515 6.658c-10.86.882-19.805 1.605-26.4 2.133-2.027 5.208-3.806 10.4-5.26 15.527l229.312-18.27a365.01 365.01 0 0 0-9.197-14.83zM286.01 265.09l-108.26 9.846c-26.291 43.058-53.372 78.8-114.39 103.964-.11 10.888 2.099 20.097 6.415 28.391 18.806-3.292 36.31-7.625 53.022-12.592-12.337 10.828-25.118 21.275-39.545 30.31 4.176 4.108 8.956 8.039 14.252 11.837 26.834-13.3 63.102-33.4 78.44-43.787L115.53 448.24c5.358 3.043 11.009 6.022 16.89 8.973 10.35-4.602 19.84-9.775 27.28-16.315-2.324 8.627-5.872 16.765-10.117 24.623a2653.953 2653.953 0 0 0 16.562 7.702c23.648-15.875 48.755-35.308 65.565-49.21-8.56 16.993-25.492 40.548-42.055 60.208 5.967 2.852 11.95 5.775 17.903 8.816 27.519-23.53 43.374-38.665 61.035-48.904 16.343-9.476 34.873-14.553 64.69-19.356-31.404-51.16-50.924-97.843-47.274-159.69zm120.635 2.543a3888.277 3888.277 0 0 1-19.096 7.38 1685.056 1685.056 0 0 1-16.588 6.282c-.9.333-1.502.543-2.309.838 4.157 6.86 7.53 14.009 9.373 21.107.146.562.268 1.13.387 1.696l17.42.347c17.241.343 25.144-2.16 31.082-5.6-4.816-10.051-12.468-21.618-20.27-32.05zM303.498 278.5c-.118 12.746.828 24.747 2.762 36.275 1.76 1.73 4.288 3.736 7.492 5.72 9.65 5.972 24.873 11.841 40.826 16.095.854.228 1.718.433 2.576.652.362-1.332.724-2.703 1.075-4.14 2.306-9.448 3.49-21.04 2.375-25.336-1.878-7.226-7.762-17.516-14.608-26.791l-42.498-2.475zm75.213 28.053c1.72 10.365-.675 21.305-2.996 30.816l-.049.192c5.442-4.88 10.576-9.54 15.602-14.082l-12.557-16.926zm38.424 18.12c-20.834 18.034-48.387 46.302-81.668 68.51a466.119 466.119 0 0 0 4.654 8.221 209.86 209.86 0 0 0 23.117-5.656c28.793-8.836 55.15-24.122 68.121-42.312-.15-6.117-1.358-13.003-3.988-18.383-2.396-4.902-5.48-8.387-10.236-10.38zm-104.881 15.509c3.79 12.414 8.748 24.52 14.719 36.73 9.808-6.722 19.25-14.074 28.26-21.588a276.096 276.096 0 0 1-5.292-1.342c-13.64-3.636-26.74-8.249-37.687-13.8zm112.975 45.023c-16.015 12.276-36.042 21.41-56.71 27.752a242.181 242.181 0 0 1-18.496 4.887 882.802 882.802 0 0 0 5.559 8.845l7.512 11.774-13.826 1.976c-15.243 2.178-27.173 4.222-37.07 6.481 4.857 7.794 9.074 15.704 14.023 22.088 5.921 7.638 12.317 13.041 23.084 15.191 7.709 1.54 15.027 2.661 21.955 3.426-10.372-17.474-18.81-33.506-16.694-33.93 10.464 12.5 21.627 24.415 34.223 35.137 6.03.142 11.66-.029 16.875-.473-6.549-10.698-11.091-22.04-3.34-36.771.809 6.527 12.803 20.592 24.883 32.752 10.675-3.387 17.581-8.31 21.438-13.42-1.967-6.603-3.248-12.754-5.022-17.906-2.213-6.426-5.082-11.745-12.443-17.526l-4.088-3.21.738-5.147c1.91-13.306.04-27.297-2.601-41.926z" fill="url(#delapouite-viking-head-gradient-1)" style="--darkreader-inline-fill: var(--darkreader-background-ffffff, #181a1b);" transform="translate(25.6, 25.6) scale(0.9, 0.9) rotate(0, 256, 256) skewX(0) skewY(0)"></path></g></svg>

<!-- Created with PixiEditor (https://pixieditor.net) -->
<svg version="1.1" viewBox="0 0 512 512" xmlns="http://www.w3.org/2000/svg">
  <ellipse cx="256" cy="256" rx="256" ry="256" transform="matrix(0.9808429, 0, 0, 0.9808429, 4.9042144, 4.9042144)" fill="url(#linearGradient0)" stroke="#ffffff" stroke-width="0" opacity="1" id="Ellipse" />
  <g opacity="1" id="New folder">
    <path d="M221.826 18.962C202.162 40.734 196.552 65.768 198.879 91.538C201.893 124.915 219.461 159.191 239.725 183.665C244.149 188.179 247.918 189.215 251.662 188.975C255.458 188.732 259.55 186.733 262.814 183.407C266.079 180.082 268.317 175.575 268.784 171.278C269.249 166.981 268.326 162.942 264.634 158.748L264.117 158.161L263.711 157.493C242.078 122.067 213.785 71.987 221.826 18.962L221.826 18.962ZM354.604 20.53C360.746 57.651 349.848 92.774 336.9 123.4C345.574 130.372 354.456 138.76 363.291 148.017C370.966 129.747 376.656 110.317 377.896 91.376C379.553 66.074 373.976 41.913 354.604 20.53L354.604 20.53ZM293.79 120.93Q293.366 120.926 292.944 120.967C287.444 121.512 278.843 125.125 269.249 131.559C272.419 137.101 275.619 142.446 278.749 147.579C285.175 155.275 287.603 164.678 286.677 173.221C285.721 182.031 281.594 189.97 275.657 196.018C269.721 202.065 261.777 206.365 252.813 206.939C243.849 207.514 234.179 203.883 226.583 196L226.354 195.764L226.145 195.512Q221.557 189.988 217.347 184.17C208.506 196.264 200.397 209.341 193.714 222.656C198.976 222.232 203.48 221.869 210.31 221.314C232.654 219.499 262.263 217.079 291.812 214.658C340.244 210.69 372.632 208.026 388.474 206.723C377.517 191.53 365.239 176.406 352.895 163.203C340.555 150.005 328.141 138.705 317.3 131.178C307.136 124.121 298.312 120.955 293.79 120.93L293.79 120.93ZM278.749 147.578C278.549 147.338 278.356 147.094 278.147 146.858L279.071 148.113C278.965 147.939 278.856 147.753 278.749 147.578L278.749 147.578ZM400.222 223.816C390.722 224.598 346.865 228.207 293.282 232.598Q252.525 235.939 211.767 239.256C200.907 240.138 191.962 240.861 185.367 241.389C183.34 246.597 181.561 251.789 180.107 256.916L409.419 238.646Q404.998 231.121 400.222 223.816ZM286.01 265.09L177.75 274.936C151.459 317.994 124.378 353.736 63.36 378.9C63.25 389.788 65.459 398.997 69.775 407.291C88.581 403.999 106.085 399.666 122.797 394.699C110.46 405.527 97.679 415.974 83.252 425.009C87.428 429.117 92.208 433.048 97.504 436.846C124.338 423.546 160.606 403.446 175.944 393.059L115.53 448.24C120.888 451.283 126.539 454.262 132.42 457.213C142.77 452.611 152.26 447.438 159.7 440.898C157.376 449.525 153.828 457.663 149.583 465.521Q157.851 469.4 166.145 473.223C189.793 457.348 214.9 437.915 231.71 424.013C223.15 441.006 206.218 464.561 189.655 484.221C195.622 487.073 201.605 489.996 207.558 493.037C235.077 469.507 250.932 454.372 268.593 444.133C284.936 434.657 303.466 429.58 333.283 424.777C301.879 373.617 282.359 326.934 286.009 265.087L286.01 265.09ZM406.645 267.633Q397.107 271.348 387.549 275.013Q379.272 278.198 370.961 281.295C370.061 281.628 369.459 281.838 368.652 282.133C372.809 288.993 376.182 296.142 378.025 303.24C378.171 303.802 378.293 304.37 378.412 304.936L395.832 305.283C413.073 305.626 420.976 303.123 426.914 299.683C422.098 289.632 414.446 278.065 406.644 267.633L406.645 267.633ZM303.498 278.5C303.38 291.246 304.326 303.247 306.26 314.775C308.02 316.505 310.548 318.511 313.752 320.495C323.402 326.467 338.625 332.336 354.578 336.59C355.432 336.818 356.296 337.023 357.154 337.242C357.516 335.91 357.878 334.539 358.229 333.102C360.535 323.654 361.719 312.062 360.604 307.766C358.726 300.54 352.842 290.25 345.996 280.975L303.498 278.5L303.498 278.5ZM378.711 306.553C380.431 316.918 378.036 327.858 375.715 337.369L375.666 337.561C381.108 332.681 386.242 328.021 391.268 323.479L378.711 306.553L378.711 306.553ZM417.135 324.673C396.301 342.707 368.748 370.975 335.467 393.183Q337.752 397.317 340.121 401.404Q351.84 399.232 363.238 395.748C392.031 386.912 418.388 371.626 431.359 353.436C431.209 347.319 430.001 340.433 427.371 335.053C424.975 330.151 421.891 326.666 417.135 324.673ZM312.254 340.182C316.044 352.596 321.002 364.702 326.973 376.912C336.781 370.19 346.223 362.838 355.233 355.324Q352.58 354.679 349.941 353.982C336.301 350.346 323.201 345.733 312.254 340.182ZM425.229 385.205C409.214 397.481 389.187 406.615 368.519 412.957Q359.368 415.766 350.023 417.844Q352.776 422.283 355.582 426.689L363.094 438.463L349.268 440.439C334.025 442.617 322.095 444.661 312.198 446.92C317.055 454.714 321.272 462.624 326.221 469.008C332.142 476.646 338.538 482.049 349.305 484.199C357.014 485.739 364.332 486.86 371.26 487.625C360.888 470.151 352.45 454.119 354.566 453.695C365.03 466.195 376.193 478.11 388.789 488.832C394.819 488.974 400.449 488.803 405.664 488.359C399.115 477.661 394.573 466.319 402.324 451.588C403.133 458.115 415.127 472.18 427.207 484.34C437.882 480.953 444.788 476.03 448.645 470.92C446.678 464.317 445.397 458.166 443.623 453.014C441.41 446.588 438.541 441.269 431.18 435.488L427.092 432.278L427.83 427.131C429.74 413.825 427.87 399.834 425.229 385.205L425.229 385.205Z" fill-rule="nonzero" transform="matrix(0.88275856, 0, 0, 0.88275856, 5.4927206, 27.071262)" fill="url(#linearGradient1)" stroke="#ffffff" stroke-width="0" stroke-linecap="butt" stroke-linejoin="miter" opacity="1" id="Path" />
  </g>
  <ellipse cx="256" cy="256" rx="256" ry="256" transform="matrix(0.9808429, 0, 0, 0.9808429, 4.9042144, 4.9042144)" fill="#ffffff" fill-opacity="0" stroke="#11527c" stroke-width="10" opacity="1" id="Ellipse" />
  <defs>
    <linearGradient x1="0" y1="0" x2="1" y2="1" id="linearGradient0">
      <stop stop-color="#03d6fc" offset="0%" stop-opacity="1" />
      <stop stop-color="#5050f0" offset="100%" stop-opacity="1" />
    </linearGradient>
    <linearGradient x1="0" y1="0" x2="1" y2="1" id="linearGradient1">
      <stop stop-color="#ffffff" offset="0%" stop-opacity="1" />
      <stop stop-color="#cccccc" offset="100%" stop-opacity="1" />
    </linearGradient>
  </defs>
</svg>
